Icons/com_citc_weather.svg

<svg viewBox="0 0 48 48" xmlns:xlink="http://www.w3.org/1999/xlink">
 <defs>
  <linearGradient id="0">
   <stop stop-opacity="0"/>
   <stop offset="1"/>
  </linearGradient>
  <linearGradient xlink:href="#0" id="1" gradientUnits="userSpaceOnUse" gradientTransform="translate(4e-7,-48)" y1="47" x2="0" y2="1"/>
  <clipPath id="2">
   <g transform="translate(0,-1004.3622)">
    <rect rx="4" y="1005.36" x="1" height="46" width="46" fill="#1890d0"/>
   </g>
  </clipPath>
  <clipPath id="3">
   <g transform="translate(0,-1004.3622)">
    <rect rx="4" y="1005.36" x="1" height="46" width="46" fill="#1890d0"/>
   </g>
  </clipPath>
 </defs>
 <g>
  <g transform="translate(0,-1004.3622)">
   <path d="m 5,1006.3622 c -2.216,0 -4,1.784 -4,4 l 0,37.25 c 0,2.216 1.784,4 4,4 l 38,0 c 2.216,0 4,-1.784 4,-4 l 0,-37.25 c 0,-2.216 -1.784,-4 -4,-4 l -38,0 z m -4,41.5 0,0.5 c 0,2.216 1.784,4 4,4 l 38,0 c 2.216,0 4,-1.784 4,-4 l 0,-0.5 c 0,2.216 -1.784,4 -4,4 l -38,0 c -2.216,0 -4,-1.784 -4,-4 z" opacity="0.02"/>
   <path d="m 1,1047.6122 0,0.25 c 0,2.216 1.784,4 4,4 l 38,0 c 2.216,0 4,-1.784 4,-4 l 0,-0.25 c 0,2.216 -1.784,4 -4,4 l -38,0 c -2.216,0 -4,-1.784 -4,-4 z" opacity="0.05"/>
   <rect width="46" height="46" x="1" y="1005.61" rx="4" opacity="0.1"/>
  </g>
 </g>
 <g>
  <g transform="translate(0,-1004.3622)">
   <rect rx="4" y="1005.36" x="1" height="46" width="46" fill="#efefef"/>
  </g>
 </g>
 <g>
  <rect transform="scale(1,-1)" width="46" height="46" x="1" y="-46.998" rx="4" opacity="0.1" fill="url(#1)"/>
 </g>
 <g>
  <g clip-path="url(#2)">
   <g opacity="0.1">
    <g>
     <path d="M 24 15 C 23.15625 15 22.285156 15.089844 21.4375 15.25 C 19.773438 15.566406 18.191406 16.21875 16.6875 17.03125 C 14.339844 18.304688 12.183594 20.0625 10.3125 22.03125 C 9.96875 22.394531 9.628906 22.761719 9.3125 23.15625 C 8.894531 23.683594 8.894531 24.316406 9.3125 24.84375 C 10.273438 26.046875 11.40625 27.113281 12.5625 28.09375 C 15.058594 30.203125 17.914062 31.976562 21.0625 32.6875 C 22.039062 32.90625 23.023438 33 24 33 C 24.992188 33 25.964844 32.90625 26.9375 32.6875 C 30.089844 31.976562 32.945312 30.203125 35.4375 28.09375 C 36.597656 27.113281 37.730469 26.046875 38.6875 24.84375 C 39.109375 24.316406 39.109375 23.683594 38.6875 23.15625 C 38.375 22.761719 38.035156 22.394531 37.6875 22.03125 C 35.820312 20.0625 33.664062 18.304688 31.3125 17.03125 C 29.8125 16.21875 28.199219 15.566406 26.53125 15.25 C 25.6875 15.089844 24.871094 15 24 15 Z M 24 17 C 27.867188 17 31 20.132812 31 24 C 31 27.867188 27.867188 31 24 31 C 20.136719 31 17 27.867188 17 24 C 17 20.132812 20.136719 17 24 17 Z M 24 17 "/>
     <path d="M 29 24 C 29 26.761719 26.761719 28.996094 24 28.996094 C 21.242188 28.996094 19.003906 26.761719 19 24 C 19 21.238281 21.238281 18.996094 24 18.996094 C 26.765625 18.996094 29.003906 21.238281 29 24 Z M 29 24 "/>
    </g>
   </g>
  </g>
 </g>
 <g>
  <g clip-path="url(#3)">
   <g transform="translate(0,-1)">
    <g>
     <path d="M 24 15 C 23.15625 15 22.285156 15.089844 21.4375 15.25 C 19.773438 15.566406 18.191406 16.21875 16.6875 17.03125 C 14.339844 18.304688 12.183594 20.0625 10.3125 22.03125 C 9.96875 22.394531 9.628906 22.761719 9.3125 23.15625 C 8.894531 23.683594 8.894531 24.316406 9.3125 24.84375 C 10.273438 26.046875 11.40625 27.113281 12.5625 28.09375 C 15.058594 30.203125 17.914062 31.976562 21.0625 32.6875 C 22.039062 32.90625 23.023438 33 24 33 C 24.992188 33 25.964844 32.90625 26.9375 32.6875 C 30.089844 31.976562 32.945312 30.203125 35.4375 28.09375 C 36.597656 27.113281 37.730469 26.046875 38.6875 24.84375 C 39.109375 24.316406 39.109375 23.683594 38.6875 23.15625 C 38.375 22.761719 38.035156 22.394531 37.6875 22.03125 C 35.820312 20.0625 33.664062 18.304688 31.3125 17.03125 C 29.8125 16.21875 28.199219 15.566406 26.53125 15.25 C 25.6875 15.089844 24.871094 15 24 15 Z M 24 17 C 27.867188 17 31 20.132812 31 24 C 31 27.867188 27.867188 31 24 31 C 20.136719 31 17 27.867188 17 24 C 17 20.132812 20.136719 17 24 17 Z M 24 17 " fill="#4ca2df"/>
     <path d="M 29 24 C 29 26.761719 26.761719 28.996094 24 28.996094 C 21.242188 28.996094 19.003906 26.761719 19 24 C 19 21.238281 21.238281 18.996094 24 18.996094 C 26.765625 18.996094 29.003906 21.238281 29 24 Z M 29 24 " fill="#ffd843"/>
    </g>
   </g>
  </g>
 </g>
 <g>
  <g transform="translate(0,-1004.3622)">
   <path d="m 1,1043.3622 0,4 c 0,2.216 1.784,4 4,4 l 38,0 c 2.216,0 4,-1.784 4,-4 l 0,-4 c 0,2.216 -1.784,4 -4,4 l -38,0 c -2.216,0 -4,-1.784 -4,-4 z" opacity="0.1"/>
  </g>
 </g>
</svg>

<svg viewBox="0 0 48 48"><defs><linearGradient id="linearGradient3764" x1="1" x2="47" gradientUnits="userSpaceOnUse" gradientTransform="translate(-48.000001,0.00221467)"><stop stop-color="#e5e5e5" stop-opacity="1"/><stop offset="1" stop-color="#efefef" stop-opacity="1"/></linearGradient><clipPath id="clipPath-589683581"><g transform="translate(0,-1004.3622)"><rect rx="4" y="1005.36" x="1" height="46" width="46" fill="#1890d0"/></g></clipPath><clipPath id="clipPath-602628441"><g transform="translate(0,-1004.3622)"><rect rx="4" y="1005.36" x="1" height="46" width="46" fill="#1890d0"/></g></clipPath></defs><g><path d="m 1 43 l 0 0.25 c 0 2.216 1.784 4 4 4 l 38 0 c 2.216 0 4 -1.784 4 -4 l 0 -0.25 c 0 2.216 -1.784 4 -4 4 l -38 0 c -2.216 0 -4 -1.784 -4 -4 z m 0 0.5 l 0 0.5 c 0 2.216 1.784 4 4 4 l 38 0 c 2.216 0 4 -1.784 4 -4 l 0 -0.5 c 0 2.216 -1.784 4 -4 4 l -38 0 c -2.216 0 -4 -1.784 -4 -4 z" opacity="0.02"/><path d="m 1 43.25 l 0 0.25 c 0 2.216 1.784 4 4 4 l 38 0 c 2.216 0 4 -1.784 4 -4 l 0 -0.25 c 0 2.216 -1.784 4 -4 4 l -38 0 c -2.216 0 -4 -1.784 -4 -4 z" opacity="0.05"/><path d="m 1 43 l 0 0.25 c 0 2.216 1.784 4 4 4 l 38 0 c 2.216 0 4 -1.784 4 -4 l 0 -0.25 c 0 2.216 -1.784 4 -4 4 l -38 0 c -2.216 0 -4 -1.784 -4 -4 z" opacity="0.1"/></g><g><rect width="46" height="46" x="-47" y="1" rx="4" transform="matrix(0,-1,1,0,0,0)" fill="url(#linearGradient3764)" fill-opacity="1"/></g><g><g clip-path="url(#clipPath-589683581)"><g opacity="0.1"><!-- color: #efefef --><g><path d="m 24 15 c -0.844 0 -1.715 0.09 -2.563 0.25 c -1.664 0.316 -3.246 0.969 -4.75 1.781 c -2.348 1.273 -4.504 3.03 -6.375 5 c -0.344 0.363 -0.684 0.73 -1 1.125 c -0.418 0.527 -0.418 1.16 0 1.688 c 0.961 1.203 2.094 2.27 3.25 3.25 c 2.496 2.109 5.352 3.883 8.5 4.594 c 0.977 0.219 1.961 0.313 2.938 0.313 c 0.992 0 1.965 -0.094 2.938 -0.313 c 3.152 -0.711 6.01 -2.484 8.5 -4.594 c 1.16 -0.98 2.293 -2.047 3.25 -3.25 c 0.422 -0.527 0.422 -1.16 0 -1.688 c -0.313 -0.395 -0.652 -0.762 -1 -1.125 c -1.867 -1.969 -4.02 -3.727 -6.375 -5 c -1.5 -0.813 -3.113 -1.465 -4.781 -1.781 c -0.844 -0.16 -1.66 -0.25 -2.531 -0.25 m 0 2 c 3.867 0 7 3.133 7 7 c 0 3.867 -3.133 7 -7 7 c -3.863 0 -7 -3.133 -7 -7 c 0 -3.867 3.137 -7 7 -7 m 0 0" fill="#000"/><path d="m 29 24 c 0 2.762 -2.238 4.996 -5 4.996 c -2.758 0 -4.996 -2.234 -5 -4.996 c 0 -2.762 2.238 -5 5 -5 c 2.766 0 5 2.242 5 5 m 0 0" fill="#000"/></g></g></g></g><g><g clip-path="url(#clipPath-602628441)"><g transform="translate(0,-1)"><!-- color: #efefef --><g><path d="m 24 15 c -0.844 0 -1.715 0.09 -2.563 0.25 c -1.664 0.316 -3.246 0.969 -4.75 1.781 c -2.348 1.273 -4.504 3.03 -6.375 5 c -0.344 0.363 -0.684 0.73 -1 1.125 c -0.418 0.527 -0.418 1.16 0 1.688 c 0.961 1.203 2.094 2.27 3.25 3.25 c 2.496 2.109 5.352 3.883 8.5 4.594 c 0.977 0.219 1.961 0.313 2.938 0.313 c 0.992 0 1.965 -0.094 2.938 -0.313 c 3.152 -0.711 6.01 -2.484 8.5 -4.594 c 1.16 -0.98 2.293 -2.047 3.25 -3.25 c 0.422 -0.527 0.422 -1.16 0 -1.688 c -0.313 -0.395 -0.652 -0.762 -1 -1.125 c -1.867 -1.969 -4.02 -3.727 -6.375 -5 c -1.5 -0.813 -3.113 -1.465 -4.781 -1.781 c -0.844 -0.16 -1.66 -0.25 -2.531 -0.25 m 0 2 c 3.867 0 7 3.133 7 7 c 0 3.867 -3.133 7 -7 7 c -3.863 0 -7 -3.133 -7 -7 c 0 -3.867 3.137 -7 7 -7 m 0 0" fill="#4ca2df"/><path d="m 29 24 c 0 2.762 -2.238 4.996 -5 4.996 c -2.758 0 -4.996 -2.234 -5 -4.996 c 0 -2.762 2.238 -5 5 -5 c 2.766 0 5 2.242 5 5 m 0 0" fill="#ffd843"/></g></g></g></g><g><g transform="translate(0,-1004.3622)"><path d="m 1 1043.36 0 4 c 0 2.216 1.784 4 4 4 l 38 0 c 2.216 0 4 -1.784 4 -4 l 0 -4 c 0 2.216 -1.784 4 -4 4 l -38 0 c -2.216 0 -4 -1.784 -4 -4 z" opacity="0.1"/></g></g></svg>
